Numix-GalliumOS/24/status/yd-busy2.svg

<?xml version="1.0" encoding="UTF-8" standalone="no"?>
<!-- Created with Inkscape (http://www.inkscape.org/) -->

<svg
   xmlns:dc="http://purl.org/dc/elements/1.1/"
   xmlns:cc="http://creativecommons.org/ns#"
   xmlns:rdf="http://www.w3.org/1999/02/22-rdf-syntax-ns#"
   xmlns:svg="http://www.w3.org/2000/svg"
   xmlns="http://www.w3.org/2000/svg"
   xmlns:sodipodi="http://sodipodi.sourceforge.net/DTD/sodipodi-0.dtd"
   xmlns:inkscape="http://www.inkscape.org/namespaces/inkscape"
   id="svg2"
   version="1.1"
   inkscape:version="0.91 r"
   width="24"
   height="24"
   viewBox="0 0 24 24"
   sodipodi:docname="yd-busy2.svg">
  <metadata
     id="metadata8">
    <rdf:RDF>
      <cc:Work
         rdf:about="">
        <dc:format>image/svg+xml</dc:format>
        <dc:type
           rdf:resource="http://purl.org/dc/dcmitype/StillImage" />
        <dc:title />
      </cc:Work>
    </rdf:RDF>
  </metadata>
  <defs
     id="defs6">
    <clipPath
       id="clipPath-408241621">
      <g
         id="g3616"
         transform="translate(0,-1004.3622)">
        <path
           id="path3618"
           transform="matrix(15.333333,0,0,11.5,414.99999,878.8622)"
           d="m -24,13 c 0,1.105 -0.672,2 -1.5,2 -0.828,0 -1.5,-0.895 -1.5,-2 0,-1.105 0.672,-2 1.5,-2 0.828,0 1.5,0.895 1.5,2 z"
           inkscape:connector-curvature="0"
           style="fill:#1890d0" />
      </g>
    </clipPath>
    <clipPath
       id="clipPath-408241621-2">
      <g
         id="g3616-2"
         transform="translate(0,-1004.3622)">
        <path
           id="path3618-9"
           transform="matrix(15.333333,0,0,11.5,414.99999,878.8622)"
           d="m -24,13 c 0,1.105 -0.672,2 -1.5,2 -0.828,0 -1.5,-0.895 -1.5,-2 0,-1.105 0.672,-2 1.5,-2 0.828,0 1.5,0.895 1.5,2 z"
           inkscape:connector-curvature="0"
           style="fill:#1890d0" />
      </g>
    </clipPath>
    <clipPath
       id="clipPath-408241621-2-6">
      <g
         id="g3616-2-4"
         transform="translate(0,-1004.3622)">
        <path
           id="path3618-9-4"
           transform="matrix(15.333333,0,0,11.5,414.99999,878.8622)"
           d="m -24,13 c 0,1.105 -0.672,2 -1.5,2 -0.828,0 -1.5,-0.895 -1.5,-2 0,-1.105 0.672,-2 1.5,-2 0.828,0 1.5,0.895 1.5,2 z"
           inkscape:connector-curvature="0"
           style="fill:#1890d0" />
      </g>
    </clipPath>
  </defs>
  <sodipodi:namedview
     pagecolor="#ffffff"
     bordercolor="#666666"
     borderopacity="1"
     objecttolerance="10"
     gridtolerance="10"
     guidetolerance="10"
     inkscape:pageopacity="0"
     inkscape:pageshadow="2"
     inkscape:window-width="1366"
     inkscape:window-height="747"
     id="namedview4"
     showgrid="true"
     showguides="false"
     inkscape:zoom="22.627416"
     inkscape:cx="6.5181299"
     inkscape:cy="12.354745"
     inkscape:window-x="0"
     inkscape:window-y="21"
     inkscape:window-maximized="1"
     inkscape:current-layer="svg2">
    <inkscape:grid
       type="xygrid"
       id="grid4142" />
  </sodipodi:namedview>
  <path
     style="opacity:1;fill:#ececec;fill-opacity:0.94117647;fill-rule:nonzero;stroke:none;stroke-width:1;stroke-linecap:square;stroke-linejoin:round;stroke-miterlimit:4;stroke-dasharray:none;stroke-dashoffset:0;stroke-opacity:1"
     d="m 12.951094,7.2227575 -0.02148,0.4023438 c 0.797905,0.1979089 1.522552,0.6084656 2.105468,1.1738281 0.150935,-0.02095 0.295222,-0.036598 0.44336,-0.054687 C 15.287873,8.5324062 15.078741,8.3411127 14.857344,8.1661169 14.798355,8.13734 14.736169,8.1157584 14.677656,8.0860388 14.349406,7.9193162 14.135394,7.7664228 13.720625,7.5333044 13.632595,7.483828 13.524417,7.4250737 13.42375,7.3692419 13.26823,7.3142485 13.111642,7.2619429 12.951094,7.2227575 Z m -2.810547,0.080078 -0.9882816,0.025391 c -0.027709,0.021947 -0.054539,0.039938 -0.082031,0.0625 L 9.3378122,7.7364294 8.8202341,8.2012732 C 8.0607457,8.88616 7.5592008,9.8215873 7.349531,10.836039 7.4812536,10.783693 7.6191083,10.733065 7.7538278,10.681742 7.9701012,9.9031243 8.3845213,9.1857183 8.9882028,8.6192419 L 9.5741404,8.0684607 9.9237497,8.4981482 10.140547,7.3028357 Z m 1.234375,1.6015625 -0.119141,0.6601561 c 0.584061,-0.152756 1.157099,-0.285012 1.720703,-0.402344 -0.280506,-0.114806 -0.57661,-0.1859345 -0.880859,-0.2070309 l -0.720703,-0.050781 z m 6.447266,0.4492191 c -0.05268,0.001 -0.112707,0.0082 -0.166016,0.0098 0.105128,0.23051 0.209572,0.462383 0.289062,0.7070309 0.485359,1.493778 0.392283,3.045907 -0.158203,4.419921 2.757627,-1.300026 4.466396,-2.761838 4.181641,-3.835941 C 21.738843,9.7825791 20.221574,9.3059211 17.822188,9.3536471 Z m -1.796875,0.126953 c -0.123068,0.01317 -0.25195,0.03358 -0.376953,0.04883 0.22605,0.338 0.412342,0.7073489 0.542968,1.1093749 0.55117,1.696327 0.120402,3.534442 -1.148437,4.732422 l -0.386719,0.367187 c 0.31785,-0.105703 0.610476,-0.220566 0.914062,-0.332031 C 16.692584,14.11815 17.083492,12.27525 16.5175,10.533306 16.39474,10.15549 16.224548,9.8069161 16.025313,9.4805721 Z m -2.09375,0.3125 c -0.889635,0.16344 -1.79746,0.3571739 -2.714844,0.6054689 -0.04107,0.01112 -0.07823,0.02393 -0.119141,0.03516 l -0.275391,1.52734 -0.9472654,-1.15625 c -0.2136252,0.06721 -0.4405201,0.127282 -0.6484375,0.197265 -0.1856652,0.597233 -0.197901,1.257352 0.00977,1.896485 0.397631,1.223782 1.4426779,2.061203 2.6464839,2.158203 l 0.728516,0.05859 -0.0059,0.109375 0.623047,-3.169921 1.294922,1.582031 c 0.430218,-0.731598 0.531862,-1.635776 0.240271,-2.5332 C 14.59686,10.590464 14.301619,10.146454 13.931563,9.7930701 Z M 7.599531,11.60557 c -0.1191163,0.04776 -0.2372316,0.09409 -0.3535156,0.142578 -0.015138,0.573738 0.052554,1.155104 0.2363281,1.720703 0.5433572,1.672281 1.8617951,2.848907 3.4394535,3.28125 0.03316,-0.007 0.06832,-0.01629 0.101563,-0.02344 l 0.01758,-0.347656 C 9.5453128,15.995099 8.3069581,14.89142 7.8104685,13.363382 7.6223549,12.784428 7.5604289,12.187828 7.599531,11.60557 Z m -1.8320313,0.810547 c -2.5043861,1.246727 -4.0061591,2.615 -3.7363281,3.632812 0.3080057,1.16827 2.8790253,1.54413 6.3261719,1.125 C 7.3072311,16.374905 6.4877785,15.258889 6.0565622,13.931742 5.8940435,13.43156 5.8047574,12.923187 5.7674997,12.416117 Z m 8.3183603,3.054687 -0.0918,0.466797 c 0.12606,-0.03911 0.256706,-0.07513 0.380859,-0.115234 l -0.289062,-0.351563 z"
     id="path4138"
     inkscape:connector-curvature="0" />
  <g
     id="g4263"
     transform="matrix(0.42307692,0,0,0.42307692,6.3606939,9.5192308)">
    <g
       style="fill:#ececec;fill-opacity:1"
       id="g3628"
       transform="matrix(0.34782609,0,0,0.34782609,2.6435901,2.6456559)" />
    <g
       transform="matrix(0.49988464,0,0,0.49988464,-37.411065,7.9950011)"
       clip-path="url(#clipPath-408241621)"
       id="g3650">
      <!-- color: #004794 -->
      <g
         id="g3652" />
    </g>
  </g>
  <g
     id="g4174"
     transform="matrix(0.30901699,0.95105652,-0.95105652,0.30901699,19.062357,-1.8607077)">
    <g
       style="fill:#ececec;fill-opacity:1"
       id="g3628-8"
       transform="matrix(0.34782609,0,0,0.34782609,2.6435901,2.6456559)">
      <path
         inkscape:connector-curvature="0"
         id="path3630"
         transform="matrix(2.875,0,0,2.875,97.067647,-33.481261)"
         d="m -25.40625,14.5 c 2.303968,0 4.367461,1.302964 5.28125,3.3125 l 1.21875,-0.46875 -1,3.46875 -3.3125,-1.84375 1.28125,-0.5 c -0.620857,-1.310198 -1.9541,-2.125 -3.46875,-2.125 -1.572637,0 -2.996131,0.939574 -3.5625,2.34375 L -30.75,18 c 0.844805,-2.103515 2.984794,-3.5 5.34375,-3.5 z m -5.5,4.71875 3.3125,1.78125 -1.28125,0.5 c 0.613358,1.304699 1.964097,2.15625 3.46875,2.15625 1.575636,0 2.978635,-0.910324 3.5625,-2.3125 l 1.78125,0.6875 c -0.876798,2.103015 -2.979296,3.46875 -5.34375,3.46875 -2.292471,0 -4.386956,-1.339213 -5.28125,-3.34375 l -1.21875,0.4375 z"
         style="fill:#ececec;fill-opacity:1"
         sodipodi:nodetypes="scccccsccscccsccsccc" />
    </g>
    <g
       transform="matrix(0.49988464,0,0,0.49988464,-37.411065,7.9950011)"
       clip-path="url(#clipPath-408241621-2)"
       id="g3650-3">
      <!-- color: #004794 -->
      <g
         id="g3652-1" />
    </g>
  </g>
  <g
     id="g4174-4"
     style="stroke:#000000;stroke-width:1.5;stroke-miterlimit:4;stroke-dasharray:none;stroke-opacity:1"
     transform="matrix(0.30901699,0.95105652,-0.95105652,0.30901699,14.828732,8.6023939)">
    <g
       style="fill:#ececec;fill-opacity:1;stroke:#000000;stroke-width:4.3125;stroke-miterlimit:4;stroke-dasharray:none;stroke-opacity:1"
       id="g3628-8-4"
       transform="matrix(0.34782609,0,0,0.34782609,2.6435901,2.6456559)" />
    <g
       transform="matrix(0.49988464,0,0,0.49988464,-37.411065,7.9950011)"
       clip-path="url(#clipPath-408241621-2-6)"
       id="g3650-3-9"
       style="stroke:#000000;stroke-width:3.00069237;stroke-miterlimit:4;stroke-dasharray:none;stroke-opacity:1">
      <!-- color: #004794 -->
      <g
         id="g3652-1-7"
         style="stroke:#000000;stroke-width:3.00069237;stroke-miterlimit:4;stroke-dasharray:none;stroke-opacity:1" />
    </g>
  </g>
</svg>

<svg xmlns="http://www.w3.org/2000/svg" viewBox="0 0 24 24">
 <path d="m 12.951 7.223 -0.021 0.402 c 0.798 0.198 1.523 0.608 2.105 1.174 0.151 -0.021 0.295 -0.037 0.443 -0.055 c -0.191 -0.212 -0.4 -0.403 -0.621 -0.578 -0.059 -0.029 -0.121 -0.05 -0.18 -0.08 -0.328 -0.167 -0.542 -0.32 -0.957 -0.553 -0.088 -0.049 -0.196 -0.108 -0.297 -0.164 -0.156 -0.055 -0.312 -0.107 -0.473 -0.146 m -2.811 0.08 -0.988 0.025 c -0.028 0.022 -0.055 0.04 -0.082 0.063 l 0.268 0.346 -0.518 0.465 c -0.759 0.685 -1.261 1.62 -1.471 2.635 0.132 -0.052 0.27 -0.103 0.404 -0.154 0.216 -0.779 0.631 -1.496 1.234 -2.063 l 0.586 -0.551 0.35 0.43 0.217 -1.195 m 1.234 1.602 -0.119 0.66 c 0.584 -0.153 1.157 -0.285 1.721 -0.402 -0.281 -0.115 -0.577 -0.186 -0.881 -0.207 l -0.721 -0.051 z m 6.447 0.449 c -0.053 0.001 -0.113 0.008 -0.166 0.01 0.105 0.231 0.21 0.462 0.289 0.707 0.485 1.494 0.392 3.046 -0.158 4.42 2.758 -1.3 4.466 -2.762 4.182 -3.836 c -0.23 -0.872 -1.747 -1.349 -4.146 -1.301 m -1.797 0.127 c -0.123 0.013 -0.252 0.034 -0.377 0.049 0.226 0.338 0.412 0.707 0.543 1.109 0.551 1.696 0.12 3.534 -1.148 4.732 l -0.387 0.367 c 0.318 -0.106 0.61 -0.221 0.914 -0.332 c 1.122 -1.288 1.513 -3.131 0.947 -4.873 -0.123 -0.378 -0.293 -0.726 -0.492 -1.053 m -2.094 0.312 c -0.89 0.163 -1.797 0.357 -2.715 0.605 -0.041 0.011 -0.078 0.024 -0.119 0.035 l -0.275 1.527 -0.947 -1.156 c -0.214 0.067 -0.441 0.127 -0.648 0.197 -0.186 0.597 -0.198 1.257 0.01 1.896 0.398 1.224 1.443 2.061 2.646 2.158 l 0.729 0.059 -0.006 0.109 0.623 -3.17 1.295 1.582 c 0.43 -0.732 0.532 -1.636 0.24 -2.533 c -0.167 -0.513 -0.462 -0.957 -0.832 -1.311 m -6.332 1.812 c -0.119 0.048 -0.237 0.094 -0.354 0.143 -0.015 0.574 0.053 1.155 0.236 1.721 0.543 1.672 1.862 2.849 3.439 3.281 0.033 -0.007 0.068 -0.016 0.102 -0.023 l 0.018 -0.348 c -1.496 -0.384 -2.734 -1.488 -3.23 -3.02 -0.188 -0.579 -0.25 -1.176 -0.211 -1.758 m -1.832 0.811 c -2.504 1.247 -4.01 2.615 -3.736 3.633 0.308 1.168 2.879 1.544 6.326 1.125 c -1.05 -0.799 -1.87 -1.915 -2.301 -3.242 -0.163 -0.5 -0.252 -1.01 -0.289 -1.516 m 8.318 3.055 -0.092 0.467 c 0.126 -0.039 0.257 -0.075 0.381 -0.115 l -0.289 -0.352 z" style="fill:#ececec;opacity:1;fill-opacity:0.941;stroke:none;fill-rule:nonzero"/>
 <g transform="matrix(0.42307692,0,0,0.42307692,6.3606939,9.5192308)">
  <g transform="matrix(0.49988464,0,0,0.49988464,-37.411065,7.9950011)">
   <!-- color: #004794 -->
  </g>
 </g>
 <g transform="matrix(0.30901699,0.95105652,-0.95105652,0.30901699,19.062357,-1.8607077)">
  <g transform="matrix(0.34782609,0,0,0.34782609,2.6435901,2.6456559)" style="fill:#ececec;fill-opacity:1">
   <path transform="matrix(2.875,0,0,2.875,97.067647,-33.481261)" d="m -25.406 14.5 c 2.304 0 4.367 1.303 5.281 3.313 l 1.219 -0.469 -1 3.469 -3.313 -1.844 1.281 -0.5 c -0.621 -1.31 -1.954 -2.125 -3.469 -2.125 -1.573 0 -2.996 0.94 -3.563 2.344 l -1.781 -0.688 c 0.845 -2.104 2.985 -3.5 5.344 -3.5 z m -5.5 4.719 3.313 1.781 -1.281 0.5 c 0.613 1.305 1.964 2.156 3.469 2.156 1.576 0 2.979 -0.91 3.563 -2.313 l 1.781 0.688 c -0.877 2.103 -2.979 3.469 -5.344 3.469 -2.292 0 -4.387 -1.339 -5.281 -3.344 l -1.219 0.438 z"/>
  </g>
  <g transform="matrix(0.49988464,0,0,0.49988464,-37.411065,7.9950011)">
   <!-- color: #004794 -->
  </g>
 </g>
 <g transform="matrix(0.30901699,0.95105652,-0.95105652,0.30901699,14.828732,8.6023939)" style="stroke-dasharray:none;stroke-opacity:1;stroke-miterlimit:4;stroke:#000;stroke-width:1.5">
  <g transform="matrix(0.49988464,0,0,0.49988464,-37.411065,7.9950011)" style="stroke-width:3">
   <!-- color: #004794 -->
  </g>
 </g>
</svg>
